X: 1
T: Tongadale
C: Farquhar MacDonald
Z: tonyeadg
S: https://thesession.org/tunes/5473#setting5473
R: reel
M: 4/4
L: 1/8
K: Amin
|:AB|cBcB AEAB|cBcB AFAc|BGDG EDEG|DEGA BAGB|
cBcB AEAB|cBcB AFAc|dBDB EDEG|DCB,C A,2:|
|:G,B,|CA,EA, FA,EA,|GA,EA, FEDC|B,G,DG, EG,DG,|FG,EG, DCG,B,|
CA,EA, FA,EA,|GA,EA, FEDC|B,G,DG, EG,DG,|CA,A,G, A,2:|

